X: 065
T: Green and Gold
R: reel
B: 204 Favourite Country Dances
N: Published by Straight & Skillern, London ca.1775
F: http://imslp.org/wiki/204_Favourite_Country_Dances_(Various) p.33 #65
Z: 2014 John Chambers <jc:trillian.mit.edu>
M: 2/4
L: 1/16
K: D
%  - - - - - - - - - - - - - - - - - - - - - - - - -
|:\
defg .a2.a2 | abag f2a2 | gagf e2g2 | f2af d4 |\
a2A2 z2a2 | a2A2 z2a2 | e4 e4 | a2e2 A4 :|
|:\
agfg f2z2 | e2A2 z2g2 | gfef e2z2 | f2D2 z4 |\
d'3a d'3a | d'2a2 gfed | e2ge {d}c2BA | dcde d4 :|
"Trio"[|]\
!p!d3e f2e2 | d2A2 TB2A2 | d3e f2e2 | d4 e2f2 |\
{a}g2{f}e2 {g}f2{e}d2 | {d}c2{B}A2 e2f2 | {a}g2{f}e2 {g}f2{e}d2 | !f!e2AB AGFE |
d3e f2e2 | d2A2 TB2A2 | !p!d3e f2e2 | d4 e2f2 |\
{a}g2fe {g}f2ed | {d}c2{B}A2 d2f2- | fBge d2Tc2 | d8 |]
%  - - - - - - - - - - - - - - - - - - - - - - - - -
%%begintext align
%% The 1st 2d & 3d Cu. foot it & hands round 6 .| the same back
%% again :| foot it corners & turn .|. foot it the other corners
%% & turn :|: lead up to the top & cast off .||. lead thro'
%% the 3d Cu. & cast up :||:
%%endtext

%%sep 1 1 500
%%sep 1 1 500
